img/arrow-1.svg

<svg width="25" height="76" viewBox="0 0 25 76" fill="none" xmlns="http://www.w3.org/2000/svg">
<g opacity="0.5">
<path d="M12.108 25C12.5472 27.1577 12.8107 29.2173 12.8986 31.375C12.9864 33.5327 13.0742 35.5923 12.8986 37.75C12.7229 39.9077 12.2837 41.9673 12.108 44.125C12.0202 46.2827 12.108 48.3423 12.2837 50.5C12.5472 52.6577 12.7229 54.7173 12.7229 56.875C12.8107 59.0327 12.8986 61.0923 12.8108 63.25C12.6351 67.4673 12.2837 71.7827 11.4054 76H11.1419C10.3513 71.7827 10.0878 67.4673 10 63.25C10 61.0923 10.0878 59.0327 10.2635 56.875C10.3513 54.7173 10.6149 52.6577 10.8784 50.5C11.1419 48.3423 11.3175 46.2827 11.2297 44.125C11.1418 41.9673 10.7905 39.9077 10.6149 37.75C10.4392 35.5923 10.6148 33.5327 10.7905 31.375C10.9662 29.2173 11.2297 27.1577 11.7567 25H12.108Z" fill="#877672"/>
</g>
<path d="M15.2184 3.50759C20.1382 5.65517 23.4864 10.4514 21.4365 15.6056C19.3865 20.7598 13.3735 24.1244 8.45367 21.9768C3.53389 19.8292 1.96229 13.5297 4.28552 9.09132C6.81374 4.22346 10.2986 1.36 15.2184 3.50759Z" fill="#F6B289"/>
<path d="M15.2184 3.50768C16.38 4.00879 17.405 4.65307 18.4299 5.44052C19.3866 6.22797 20.2749 7.15859 20.9582 8.23238C21.6415 9.30617 22.1198 10.5947 22.1881 11.8833C22.3248 13.1718 22.0515 14.532 21.5731 15.7489C20.5482 18.1829 18.7033 20.0441 16.585 21.3326C14.4668 22.5496 11.8702 23.1939 9.47866 22.5496C7.0871 21.9053 4.96886 20.1157 3.87557 17.7533C2.78229 15.391 2.64563 12.5276 3.60225 10.0936C3.80724 9.44935 4.14889 8.87666 4.42222 8.37556C4.76387 7.80287 5.10552 7.30175 5.44717 6.72906C6.19881 5.72686 7.0871 4.72466 8.11206 4.0088C9.13701 3.29293 10.367 2.86341 11.5969 2.79182C12.8952 2.64865 14.1251 3.00658 15.2184 3.50768ZM15.2184 3.57928C14.1251 3.07817 12.8952 2.79183 11.6652 2.935C10.4353 3.00659 9.342 3.50769 8.31705 4.29514C7.36042 5.011 6.54046 6.0132 5.85715 7.0154C5.17385 8.01761 4.49055 9.163 4.08056 10.3084C3.19227 12.5991 3.32893 15.3194 4.28555 17.5386C4.76387 18.684 5.5155 19.6862 6.4038 20.5452C7.29209 21.3327 8.38538 21.9769 9.54699 22.3349C11.8702 23.0507 14.4668 22.5496 16.5167 21.2611C18.6349 19.9725 20.2749 17.9681 21.2315 15.6773C21.7098 14.532 21.9148 13.2434 21.7781 12.0264C21.7098 10.8095 21.2998 9.59251 20.6848 8.51872C19.4549 6.15637 17.405 4.5099 15.2184 3.57928Z" fill="#F6B289"/>
<path d="M21.71 4.58151C23.4866 7.23019 24.8532 10.38 24.9899 13.7445C25.0582 15.391 24.7849 17.1807 24.0333 18.684C23.2816 20.2589 22.12 21.5474 20.8217 22.478C18.0885 24.3393 14.877 25.1267 11.7338 24.9835C8.59059 24.8404 5.37906 23.695 3.12416 21.2611C2.03087 20.0441 1.07425 18.6124 0.595934 16.9659C0.0492908 15.391 -0.08737 13.6014 0.0492908 11.9549C0.390943 8.59034 2.0992 5.29738 4.76409 3.29296C5.10574 3.00662 5.44739 2.79186 5.78904 2.5771C6.1307 2.36235 6.47235 2.14757 6.814 2.0044C7.4973 1.64647 8.24894 1.28855 9.00057 1.0022C10.5038 0.429512 12.0754 0 13.7154 0C15.3553 0 16.9269 0.429508 18.2935 1.28854C19.7284 2.07599 20.8217 3.29296 21.71 4.58151ZM21.6417 4.6531C20.7534 3.36455 19.5918 2.14758 18.2252 1.43172C16.8586 0.715861 15.287 0.429508 13.7837 0.57268C12.2804 0.715852 10.7772 1.21696 9.41055 1.78965C8.04395 2.43393 6.60901 3.1498 5.37906 4.08042C2.9875 5.94165 1.34757 8.87667 1.00592 12.0265C0.800925 13.6013 0.937586 15.1762 1.34757 16.6796C1.82588 18.1829 2.50918 19.6146 3.53414 20.8316C5.58405 23.2655 8.65892 24.554 11.7338 24.6256C14.8087 24.6972 17.9519 23.695 20.3434 21.7622C21.5734 20.8316 22.5983 19.6146 23.2816 18.2545C23.9649 16.8943 24.3066 15.3194 24.3749 13.7445C24.5116 10.5948 23.4183 7.30178 21.6417 4.6531Z" fill="#F6B289"/>
</svg>

<svg xmlns="http://www.w3.org/2000/svg" width="25" height="76" fill="none"  xmlns:v="https://vecta.io/nano"><path d="M12.108 25c.439 2.158.703 4.217.791 6.375v6.375l-.791 6.375c-.088 2.158 0 4.217.176 6.375.264 2.158.439 4.217.439 6.375l.088 6.375c-.176 4.217-.527 8.533-1.405 12.75h-.264c-.791-4.217-1.054-8.533-1.142-12.75 0-2.158.088-4.217.264-6.375.088-2.158.351-4.217.615-6.375s.439-4.217.351-6.375-.439-4.217-.615-6.375 0-4.217.176-6.375.439-4.217.966-6.375h.351z" fill="#877672" opacity=".5"/><g fill="#f6b289"><path d="M15.218 3.508c4.92 2.148 8.268 6.944 6.218 12.098s-8.063 8.519-12.983 6.371S1.962 13.53 4.286 9.091c2.528-4.868 6.013-7.731 10.933-5.584z"/><path d="M15.218 3.508c1.162.501 2.187 1.145 3.211 1.933.957.787 1.845 1.718 2.528 2.792s1.162 2.362 1.23 3.651c.137 1.288-.137 2.649-.615 3.866-1.025 2.434-2.87 4.295-4.988 5.584-2.118 1.217-4.715 1.861-7.106 1.217s-4.51-2.434-5.603-4.796-1.23-5.226-.273-7.66c.205-.644.547-1.217.82-1.718L5.447 6.73c.752-1.002 1.64-2.004 2.665-2.72a6.85 6.85 0 0 1 3.485-1.217c1.298-.143 2.528.215 3.622.716zm0 .072c-1.093-.501-2.323-.787-3.553-.644-1.23.072-2.323.573-3.348 1.36-.957.716-1.777 1.718-2.46 2.72S4.49 9.164 4.08 10.309c-.888 2.291-.752 5.011.205 7.23.478 1.145 1.23 2.148 2.118 3.007.888.787 1.982 1.432 3.143 1.79 2.323.716 4.92.215 6.97-1.074 2.118-1.289 3.758-3.293 4.715-5.584.478-1.145.683-2.434.547-3.651-.068-1.217-.478-2.434-1.093-3.508-1.23-2.362-3.28-4.009-5.466-4.939zm6.492 1.002c1.777 2.649 3.143 5.798 3.28 9.163.068 1.646-.205 3.436-.957 4.94-.752 1.575-1.913 2.863-3.212 3.794-2.733 1.861-5.945 2.649-9.088 2.505s-6.355-1.288-8.61-3.722c-1.093-1.217-2.05-2.649-2.528-4.295-.547-1.575-.683-3.365-.547-5.011.342-3.365 2.05-6.658 4.715-8.662.342-.286.683-.501 1.025-.716s.683-.43 1.025-.573C7.496 1.647 8.248 1.289 9 1.003 10.504.43 12.075 0 13.715 0s3.211.43 4.578 1.289c1.435.787 2.528 2.004 3.416 3.293zm-.068.072c-.888-1.289-2.05-2.506-3.416-3.221a8.01 8.01 0 0 0-4.442-.859c-1.503.143-3.006.644-4.373 1.217-1.367.644-2.802 1.36-4.031 2.291-2.392 1.861-4.031 4.796-4.373 7.946-.205 1.575-.068 3.15.342 4.653.478 1.503 1.162 2.935 2.187 4.152 2.05 2.434 5.125 3.722 8.2 3.794s6.218-.931 8.61-2.863c1.23-.931 2.255-2.148 2.938-3.508s1.025-2.935 1.093-4.51c.137-3.15-.957-6.443-2.733-9.091z"/></g></svg>
